!!!!SEGMENT: pl-kk--kk-i-40--011-001_asola-giovanni-mateo-missa-primi-toni-kyrie.krn
!!!id: 16xx:1319
!!!COM: Asola, Giovanni Matteo
!!!OTL: Missa primi toni – Kyrie
!!!PDT:
!!!SMS-siglum: PL-Kk
!!!SMS-shelfmark: Kk.I.40
!!!NIFC-rismID: 1001154533
!!!URL-scan: http://repozytorium.nifc.pl/skany/pl-kk-nut--i-40
!!!ONB-nifc: UWAGA: części Mszy: 1. Kyrie, 2. Et in terra, 3. Sanctus, 4. Agnus Dei. Skan 0014-0016
!!!SMS-variant:
!!!SMS-altvar:
**kern	**text
*I"Baſso Ripieno.	*
*clefF4	*
*k[]	*
*M2/1	*
*met(C|)	*
=1-	=1-
0r	.
=2-	=2-
!LO:TX:t=P:problem:kreska pseudotaktowa	!
1r	.
1AA	Ky-
=3-	=3-
2.C/	rie
!LO:TX:t=P:problem:kreska pseudotaktowa	!
4D/	.
*2\right	*
2.E\	.
4D/	.
=4-	=4-
2C/	e-
2D/	-lei-
1AA	-son
=5-	=5-
!LO:TX:t=P:problem:kreska pseudotaktowa	!
0D	.
=6-	=6-
1r	.
*	*ij
1D	Ky-
=7-	=7-
2C/	-rie-
!LO:TX:t=P:problem:kreska pseudotaktowa	!
2AA/	.
1C	-e
=8-	=8-
2GG/	.
1C	.
2GG/	e-
=9-	=9-
1AA	-lei-
1BB-X	-son
*	*Xij
=10-	=10-
!LO:TX:t=P:problem:kreska pseudotaktowa	!
1AA	.
!LO:TX:t=P:problem:kreska pseudotaktowa	!
1r	.
=11-	=11-
!LO:SIC:v:t=custos F	!
!LO:TX:t=P:problem:kreska pseudotaktowa	!
1D	Ky-
!LO:LB:g=original	!
2.F\	.
!LO:TX:t=P:problem:kreska pseudotaktowa	!
4G\	-rie
=12-	=12-
2A\	.
!LO:TX:t=P:problem:kreska pseudotaktowa	!
2F\	.
2E\	.
!LO:TX:t=P:problem:kreska pseudotaktowa	!
2A\	e-
=13-	=13-
2G\	-lei-
2E\	.
*lig	*
1F	.
=14-	=14-
1E	.
*Xlig	*
!LO:TX:t=P:problem:kreska pseudotaktowa	!
!LO:TX:t=P:problem:oddech jako rozdzielacz słów:global	!
1AA,<	-son
=15-	=15-
!LO:TX:t=P:problem:kreska pseudotaktowa	!
0r	.
=16-	=16-
*	*ij
1AA	Ky-
2C/	-rie
!LO:TX:t=P:problem:kreska pseudotaktowa	!
2C/	e-
=17-	=17-
1D	-lei-
!LO:TX:t=P:problem:kreska pseudotaktowa	!
1AA,<	-son
*	*Xij
=18-	=18-
1r	.
2r	.
1A\	Ky-
=19-	=19-
.	.
!LO:TX:t=P:problem:kreska pseudotaktowa	!
2G\	-rie
2A\	.
2D/	.
=20-	=20-
*lig	*
1E	e-
1F	-lei-
*Xlig	*
=21-	=21-
!LO:TX:t=P:problem:kreska pseudotaktowa	!
1E	-son
2r	.
*	*ij
1AA/	Ky-
=22-	=22-
.	.
2GG/	-rie
1AA	e-
=23-	=23-
1E	-lei-
!LO:TX:t=P:problem:kreska pseudotaktowa	!
1AA	-son
*	*Xij
=24-	=24-
2r	.
2AA/	Ky-
2D/	-rie
2GG/	e-
=25-	=25-
1AA	-lei-
!LO:TX:t=P:problem:kreska pseudotaktowa	!
1D	-son
=26-	=26-
2r	.
*	*ij
1D	Ky-
2GG/	-rie
=27-	=27-
1D	e-
1AA	-lei-
=28-	=28-
0D;	-son
*	*Xij
=29||-	=29||-
*M2/1	*
*met(C|)	*
!LO:LB:g=original	!
0r	.
=30-	=30-
!LO:TX:t=P:problem:kreska pseudotaktowa	!
1r	.
1D	Chri-
=31-	=31-
2C/	-ste
!LO:TX:t=P:problem:kreska pseudotaktowa	!
2AA/	e-
1E	-lei-
=32-	=32-
!LO:TX:t=P:problem:kreska pseudotaktowa	!
1AA	-son
!LO:TX:t=P:problem:kreska pseudotaktowa	!
0r	.
=33-	=33-
.	.
*	*ij
1AA	Chri-
=34-	=34-
!LO:TX:t=P:problem:kreska pseudotaktowa	!
1E	-ste
2.F\	e-
4E\	-lei-
=35-	=35-
2D/	-son
*	*Xij
!LO:TX:t=P:problem:kreska pseudotaktowa	!
2C/	.
1BBny	.
=36-	=36-
!LO:TX:t=P:problem:kreska pseudotaktowa	!
1AA	.
1r	.
=37-	=37-
2r	.
!LO:TX:t=P:problem:kreska pseudotaktowa	!
2E\	X-
2AA/	-te
1A\	e-
=38-	=38-
.	.
!LO:TX:t=P:problem:kreska pseudotaktowa	!
2G\	-lei-
1A	-son
=39-	=39-
!LO:TX:t=P:problem:kreska pseudotaktowa	!
1E	.
1r	.
=40-	=40-
2r	.
*	*ij
2E\	X-
2F\	-te
!LO:TX:t=P:problem:kreska pseudotaktowa	!
2D\	e-
=41-	=41-
2.E\	-lei-
4D/	.
2C/	-son
*	*Xij
!LO:TX:t=P:problem:kreska pseudotaktowa	!
2D/	.
=42-	=42-
1BB	.
!LO:TX:t=P:problem:kreska pseudotaktowa	!
1AA	.
=43-	=43-
0r	.
=44-	=44-
!LO:SIC:v:t=custos E	!
!LO:TX:t=P:problem:kreska pseudotaktowa	!
!LO:TX:b:t=Vertat	!
1r	.
!LO:PB:g=original	!
2r	.
!LO:TX:t=P:problem:kreska pseudotaktowa	!
2E\	X-
=45-	=45-
2.F\	-te
!LO:TX:t=P:problem:kreska pseudotaktowa	!
4E\	e-
2D/	-lei-
2C/	.
=46-	=46-
1BBn	-son
!LO:TX:t=P:problem:kreska pseudotaktowa	!
1AA	.
=47-	=47-
2r	.
*	*ij
1AA	X-
1D\	-te
=48-	=48-
.	.
!LO:TX:t=P:problem:kreska pseudotaktowa	!
2C/	e-
2D/	-lei-
2GG/	-son
*	*Xij
=49-	=49-
!LO:TX:t=P:problem:kreska pseudotaktowa	!
1AA	.
2r	.
1D\	Chri-
=50-	=50-
.	.
2GG/	.
1D	-ste
=51-	=51-
2.AA/	.
!LO:TX:t=P:problem:kreska pseudotaktowa	!
4BB/	e-
2C/	-lei-
2GG/	.
=52-	=52-
1D	-son
!LO:TX:t=P:problem:kreska pseudotaktowa	!
1GG	.
=53-	=53-
1r	.
*	*ij
1D	Chri-
=54-	=54-
2.F\	.
!LO:TX:t=P:problem:kreska pseudotaktowa	!
4G\	-ste
2A\	e-
!LO:TX:t=P:problem:kreska pseudotaktowa	!
2F\	-lei-
=55-	=55-
2G\	.
2A\	-son
*	*Xij
!LO:TX:t=P:problem:kreska pseudotaktowa	!
1D	.
=56-	=56-
2r	.
!LO:TX:t=P:problem:kreska pseudotaktowa	!
[<2D/	e-
2D/]	.
2GG/	.
=57-	=57-
0D	-lei-
=58-	=58-
0AA;	-son.
=59||-	=59||-
*M2/1	*
*met(C|)	*
!LO:LB:g=original	!
2.D/	Ky-
4D/	-rie
2C/	.
!LO:TX:t=P:problem:kreska pseudotaktowa	!
2AA/	.
=60-	=60-
2BB/	e-
2C/	-lei-
2D/	.
2BB/	-son
=61-	=61-
!LO:TX:t=P:problem:kreska pseudotaktowa	!
1AA	.
0r	.
=62-	=62-
.	.
*	*ij
2.A\	Ky-
4A\	-rie
=63-	=63-
2G\	.
!LO:TX:t=P:problem:kreska pseudotaktowa	!
2E\	.
2F\	.
2G\	e-
=64-	=64-
2A\	-lei-
2F\	-son
*	*Xij
!LO:TX:t=P:problem:kreska pseudotaktowa	!
1E	.
=65-	=65-
2r	.
!LO:TX:t=P:problem:kreska pseudotaktowa	!
2E\	Ky-
2F\	-rie
!LO:TX:t=P:problem:kreska pseudotaktowa	!
2D\	.
=66-	=66-
1E	[e-]
!LO:TX:t=P:problem:kreska pseudotaktowa	!
1AA	-lei-
=67-	=67-
2.E\	-son
*	*ij
4D/	Ky-
2C/	-rie
!LO:TX:t=P:problem:kreska pseudotaktowa	!
2D/	e-
=68-	=68-
1BB	-lei-
!LO:TX:t=P:problem:kreska pseudotaktowa	!
1AA	-son
*	*Xij
=69-	=69-
0r	.
=70-	=70-
!LO:TX:t=P:problem:kreska pseudotaktowa	!
1r	.
2r	.
2AA/	Ky-
=71-	=71-
2D/	-rie
!LO:TX:t=P:problem:kreska pseudotaktowa	!
2GG/	e-
1AA	-lei-
=72-	=72-
!LO:TX:t=P:problem:kreska pseudotaktowa	!
1D	-son
0r	.
=73-	=73-
.	.
2r	.
*	*ij
2G\	Ky-
=74-	=74-
2C/	-rie
2AA/	e-
!LO:TX:t=P:problem:kreska pseudotaktowa	!
1E	-lei-
=75-	=75-
!LO:LB:g=original	!
2AA,</	-son
!LO:TX:t=P:problem:kreska pseudotaktowa	!
2A\	Ky-
4D\	-rie
4F\	e-
2E\	-lei-
=76-	=76-
!LO:TX:t=P:problem:kreska pseudotaktowa	!
1AA	-son
*	*Xij
2r	.
2E\	Ky-
=77-	=77-
2F\	-rie
2D\	e-
1E	-lei-
=78-	=78-
!LO:TX:t=P:problem:kreska pseudotaktowa	!
1D	-son
2r	.
*	*ij
2D/	Ky-
=79-	=79-
2AA/	-rie
!LO:TX:t=P:problem:kreska pseudotaktowa	!
2C/	e-
1G	-lei-
=80-	=80-
!LO:TX:t=P:problem:kreska pseudotaktowa	!
1C	-son
1r	.
=81-	=81-
2r	.
!LO:TX:t=P:problem:kreska pseudotaktowa	!
2F\	Ky-
4D\	-rie
4D\	e-
2E\	-lei-
=82-	=82-
!LO:TX:t=P:problem:kreska pseudotaktowa	!
1AA	-son
*	*Xij
0r	.
=83-	=83-
.	.
2.A\	Ky-
4A\	-rie
=84-	=84-
2G\	.
2F\	e-
1E	-lei-
=85-	=85-
!LO:TX:t=P:problem:kreska pseudotaktowa	!
0D	-son
=86-	=86-
1r	.
*	*ij
1AA	Ky-
=87-	=87-
2.C/	-rie
!LO:TX:t=P:problem:kreska pseudotaktowa	!
4D/	e-
2.E\	-lei-
4D/	.
=88-	=88-
2C/	.
2D/	.
1AA	-son
*	*Xij
=89-	=89-
!LO:TX:t=P:problem:kreska pseudotaktowa	!
1D	.
1r	.
=90-	=90-
1D	Ky-
2C/	.
!LO:TX:t=P:problem:kreska pseudotaktowa	!
2AA/	-rie
=91-	=91-
1C	.
2GG/	.
1C/	.
=92-	=92-
.	.
2D/	.
1AA	e-
=93-	=93-
!LO:TX:t=P:problem:kreska pseudotaktowa	!
1D	-lei-
1G	.
=94-	=94-
0D;	-son.
=-	=-
*-	*-
!!!RDF**kern: < = below
!!!RDF**kern: > = above
!!!ENC:Anastazja Marusiak
!!!END:2021-07-05
!!!ENC: Marta Chmielewska
!!!END: 2021-08-02
